public/brands/graphql.svg

<?xml version="1.0" encoding="UTF-8"?>
<svg width="316px" height="408px" viewBox="0 0 316 408" version="1.1" xmlns="http://www.w3.org/2000/svg" xmlns:xlink="http://www.w3.org/1999/xlink">
    <!-- Generator: Sketch 41 (35326) - http://www.bohemiancoding.com/sketch -->
    <title>graphql</title>
    <desc>Created with Sketch.</desc>
    <defs></defs>
    <g id="Page-1" stroke="none" stroke-width="1" fill="none" fill-rule="evenodd">
        <g id="graphql">
            <g id="Group" transform="translate(15.000000, 0.000000)" fill="#E535AB">
                <rect id="Rectangle-path" transform="translate(85.788909, 127.200082) rotate(210.000728) translate(-85.788909, -127.200082) " x="79.0304858" y="-3.53173605" width="13.5168455" height="261.463635"></rect>
                <rect id="Rectangle-path" x="12.0514286" y="218.938776" width="260.815714" height="13.5510204"></rect>
                <rect id="Rectangle-path" transform="translate(85.819933, 258.439102) rotate(210.000728) translate(-85.819933, -258.439102) " x="10.5001614" y="251.663741" width="150.639543" height="13.5507223"></rect>
                <rect id="Rectangle-path" transform="translate(199.147659, 61.639918) rotate(210.000728) translate(-199.147659, -61.639918) " x="123.827887" y="54.8645572" width="150.639543" height="13.5507223"></rect>
                <rect id="Rectangle-path" transform="translate(85.856087, 61.588327) rotate(239.999272) translate(-85.856087, -61.588327) " x="79.0976644" y="-13.9202163" width="13.5168455" height="151.017086"></rect>
                <rect id="Rectangle-path" transform="translate(199.240406, 127.202531) rotate(239.999272) translate(-199.240406, -127.202531) " x="68.8354176" y="120.427169" width="260.809976" height="13.5507223"></rect>
                <rect id="Rectangle-path" x="22.3928571" y="84.4897959" width="13.5171429" height="151.020408"></rect>
                <rect id="Rectangle-path" x="249.09" y="84.4897959" width="13.5171429" height="151.020408"></rect>
                <rect id="Rectangle-path" transform="translate(199.147089, 258.363755) rotate(239.999272) translate(-199.147089, -258.363755) " x="193.243647" y="192.691731" width="11.8068831" height="131.344049"></rect>
                <path d="M280.521429,239.918367 C272.704286,253.55102 255.278571,258.204082 241.68,250.367347 C228.081429,242.530612 223.44,225.061224 231.257143,211.428571 C239.074286,197.795918 256.5,193.142857 270.098571,200.979592 C283.778571,208.897959 288.42,226.285714 280.521429,239.918367" id="Shape"></path>
                <path d="M53.6614286,108.571429 C45.8442857,122.204082 28.4185714,126.857143 14.82,119.020408 C1.22142857,111.183673 -3.42,93.7142857 4.39714286,80.0816327 C12.2142857,66.4489796 29.64,61.7959184 43.2385714,69.6326531 C56.8371429,77.5510204 61.4785714,94.9387755 53.6614286,108.571429" id="Shape"></path>
                <path d="M4.47857143,239.918367 C-3.33857143,226.285714 1.30285714,208.897959 14.9014286,200.979592 C28.5,193.142857 45.8442857,197.795918 53.7428571,211.428571 C61.56,225.061224 56.9185714,242.44898 43.32,250.367347 C29.64,258.204082 12.2957143,253.55102 4.47857143,239.918367" id="Shape"></path>
                <path d="M231.338571,108.571429 C223.521429,94.9387755 228.162857,77.5510204 241.761429,69.6326531 C255.36,61.7959184 272.704286,66.4489796 280.602857,80.0816327 C288.42,93.7142857 283.778571,111.102041 270.18,119.020408 C256.581429,126.857143 239.155714,122.204082 231.338571,108.571429" id="Shape"></path>
                <path d="M142.5,319.836735 C126.784286,319.836735 114.081429,307.102041 114.081429,291.346939 C114.081429,275.591837 126.784286,262.857143 142.5,262.857143 C158.215714,262.857143 170.918571,275.591837 170.918571,291.346939 C170.918571,307.020408 158.215714,319.836735 142.5,319.836735" id="Shape"></path>
                <path d="M142.5,57.1428571 C126.784286,57.1428571 114.081429,44.4081633 114.081429,28.6530612 C114.081429,12.8979592 126.784286,0.163265306 142.5,0.163265306 C158.215714,0.163265306 170.918571,12.8979592 170.918571,28.6530612 C170.918571,44.4081633 158.215714,57.1428571 142.5,57.1428571" id="Shape"></path>
            </g>
            <path d="M43.5634249,345.258434 C41.6946078,343.288599 39.472264,341.760738 36.8963269,340.674804 C34.3203897,339.588869 31.3656826,339.04591 28.0321169,339.04591 C24.5975341,339.04591 21.5039305,339.677258 18.7512133,340.939972 C15.9984962,342.202687 13.6625098,343.907325 11.7431841,346.05394 C9.82385841,348.200554 8.34650485,350.688064 7.31107914,353.516544 C6.27565343,356.345024 5.75794834,359.324985 5.75794834,362.456516 C5.75794834,365.588048 6.27565343,368.568009 7.31107914,371.396489 C8.34650485,374.224969 9.82385841,376.699852 11.7431841,378.821212 C13.6625098,380.942571 15.9984962,382.634583 18.7512133,383.897298 C21.5039305,385.160012 24.5975341,385.791359 28.0321169,385.791359 C31.0626312,385.791359 33.840561,385.463059 36.3659895,384.806447 C38.8914181,384.149836 40.9369845,383.316457 42.5027502,382.306286 L42.5027502,366.017353 L30.0019414,366.017353 L30.0019414,361.244317 L47.9576487,361.244317 L47.9576487,385.412547 C45.0281515,387.180347 41.8714132,388.49355 38.4873389,389.352196 C35.1032646,390.210842 31.5929716,390.640158 27.9563544,390.640158 C23.9156687,390.640158 20.1780905,389.933049 16.7435077,388.518809 C13.3089248,387.104569 10.3542177,385.147391 7.87929773,382.647217 C5.40437773,380.147042 3.47245386,377.179708 2.08346815,373.745125 C0.694482438,370.310543 0,366.54771 0,362.456516 C0,358.365322 0.707109392,354.60249 2.12134939,351.167907 C3.53558939,347.733324 5.49276717,344.76599 7.99294145,342.265816 C10.4931157,339.765642 13.4478228,337.808464 16.8571514,336.394224 C20.26648,334.979984 23.9661773,334.272874 27.9563544,334.272874 C32.249583,334.272874 35.9871612,334.904222 39.1692012,336.166936 C42.3512412,337.429651 45.0786631,339.197424 47.3515489,341.47031 L43.5634249,345.258434 Z M61.6475076,361.623129 C61.6475076,360.663466 61.6222537,359.426025 61.5717451,357.910768 C61.5212365,356.39551 61.4454748,355.031799 61.3444577,353.819594 L66.2690187,353.819594 C66.3700359,354.779257 66.4457976,355.839921 66.4963062,357.001618 C66.5468148,358.163315 66.5720687,359.122963 66.5720687,359.880592 L66.7235936,359.880592 C67.733765,357.809741 69.2489995,356.130356 71.2693423,354.842387 C73.2896852,353.554419 75.5625368,352.910444 78.0879653,352.910444 C78.7445768,352.910444 79.3380436,352.935698 79.8683836,352.986206 C80.3987236,353.036715 80.9416826,353.137731 81.4972769,353.289256 L80.8154146,358.138055 C80.5123631,358.037038 80.007285,357.936022 79.300165,357.835005 C78.593045,357.733988 77.8859356,357.68348 77.1788156,357.68348 C75.8150842,357.68348 74.501881,357.936019 73.2391667,358.441105 C71.9764525,358.946191 70.8779075,359.741689 69.9434989,360.827623 C69.0090904,361.913557 68.2514732,363.302522 67.6706246,364.994559 C67.089776,366.686596 66.7993561,368.719536 66.7993561,371.093439 L66.7993561,389.276433 L61.6475076,389.276433 L61.6475076,361.623129 Z M110.415394,366.396165 C110.415394,363.315142 109.607269,361.017037 107.990995,359.50178 C106.37472,357.986522 104.026107,357.228905 100.945084,357.228905 C98.8237241,357.228905 96.8539194,357.607714 95.0356108,358.365342 C93.2173022,359.122971 91.6768139,360.133127 90.4140996,361.395842 L87.5351255,357.98653 C88.999874,356.521781 90.9317979,355.309594 93.330955,354.349931 C95.7301122,353.390268 98.4449072,352.910444 101.475421,352.910444 C103.394747,352.910444 105.187775,353.17561 106.854557,353.70595 C108.52134,354.23629 109.986067,355.031788 111.248781,356.092468 C112.511495,357.153148 113.496398,358.491605 114.203518,360.107879 C114.910638,361.724154 115.264192,363.618197 115.264192,365.790065 L115.264192,381.321373 C115.264192,382.685105 115.3147,384.099323 115.415717,385.564072 C115.516735,387.028821 115.668258,388.266262 115.870292,389.276433 L111.248781,389.276433 C111.097255,388.417788 110.970986,387.483393 110.869969,386.473222 C110.768952,385.46305 110.718444,384.478148 110.718444,383.518485 L110.566919,383.518485 C108.950645,385.892388 107.119736,387.597027 105.074139,388.632452 C103.028542,389.667878 100.566286,390.185583 97.6872975,390.185583 C96.3235661,390.185583 94.9219743,389.996179 93.48248,389.617365 C92.0429857,389.23855 90.7297826,388.61983 89.5428311,387.761184 C88.3558797,386.902538 87.3709773,385.791366 86.5880945,384.427635 C85.8052116,383.063903 85.4137761,381.397146 85.4137761,379.427311 C85.4137761,376.699848 86.1082585,374.540639 87.4972442,372.949619 C88.8862299,371.358599 90.7423921,370.171666 93.0657864,369.388783 C95.3891807,368.6059 98.0534678,368.100822 101.058728,367.873533 C104.063988,367.646245 107.182845,367.532602 110.415394,367.532602 L110.415394,366.396165 Z M108.900144,371.548014 C106.778784,371.548014 104.644829,371.636402 102.498215,371.813182 C100.351601,371.989962 98.4070498,372.343517 96.6645041,372.873857 C94.9219584,373.404197 93.4951126,374.174441 92.3839241,375.184613 C91.2727355,376.194784 90.7171495,377.533241 90.7171495,379.200024 C90.7171495,380.462738 90.9570617,381.523402 91.4368931,382.382048 C91.9167245,383.240694 92.5606991,383.935176 93.3688363,384.465516 C94.1769734,384.995856 95.0734871,385.374665 96.0584043,385.601953 C97.0433214,385.829242 98.0408507,385.942884 99.0510221,385.942884 C100.869331,385.942884 102.485581,385.627211 103.899821,384.995853 C105.314061,384.364496 106.500994,383.505864 107.460657,382.419929 C108.42032,381.333995 109.152683,380.083927 109.657769,378.669687 C110.162855,377.255447 110.415394,375.765466 110.415394,374.1997 L110.415394,371.548014 L108.900144,371.548014 Z M133.727088,407.459428 L128.575239,407.459428 L128.575239,353.819594 L133.727088,353.819594 L133.727088,359.956354 L133.954375,359.956354 C135.419124,357.63296 137.376301,355.877814 139.825967,354.690862 C142.275633,353.503911 144.763143,352.910444 147.288571,352.910444 C150.066543,352.910444 152.579306,353.390268 154.826938,354.349931 C157.074569,355.309594 158.993866,356.622797 160.584886,358.28958 C162.175906,359.956363 163.413347,361.926168 164.297247,364.199053 C165.181147,366.471939 165.623091,368.921568 165.623091,371.548014 C165.623091,374.174459 165.181147,376.624088 164.297247,378.896974 C163.413347,381.16986 162.175906,383.139664 160.584886,384.806447 C158.993866,386.47323 157.074569,387.786433 154.826938,388.746096 C152.579306,389.705759 150.066543,390.185583 147.288571,390.185583 C144.763143,390.185583 142.275633,389.592116 139.825967,388.405165 C137.376301,387.218214 135.419124,385.513575 133.954375,383.291198 L133.727088,383.291198 L133.727088,407.459428 Z M160.168192,371.548014 C160.168192,369.578179 159.865145,367.722017 159.259043,365.979471 C158.65294,364.236926 157.78168,362.721691 156.645237,361.433723 C155.508794,360.145754 154.107202,359.122971 152.44042,358.365342 C150.773637,357.607714 148.879594,357.228905 146.758234,357.228905 C144.788399,357.228905 142.970118,357.595087 141.303335,358.327461 C139.636552,359.059835 138.19708,360.069992 136.984874,361.35796 C135.772668,362.645929 134.825647,364.161163 134.143781,365.903709 C133.461915,367.646255 133.120988,369.527671 133.120988,371.548014 C133.120988,373.568356 133.461915,375.449773 134.143781,377.192318 C134.825647,378.934864 135.772668,380.437471 136.984874,381.700186 C138.19708,382.9629 139.636552,383.960429 141.303335,384.692804 C142.970118,385.425178 144.788399,385.791359 146.758234,385.791359 C148.879594,385.791359 150.773637,385.425178 152.44042,384.692804 C154.107202,383.960429 155.508794,382.950273 156.645237,381.662304 C157.78168,380.374336 158.65294,378.859101 159.259043,377.116556 C159.865145,375.37401 160.168192,373.517848 160.168192,371.548014 Z M182.191924,359.653305 C183.151587,357.582453 184.742583,355.940949 186.96496,354.728743 C189.187337,353.516538 191.561204,352.910444 194.086633,352.910444 C198.581896,352.910444 201.953292,354.248901 204.200924,356.925855 C206.448555,359.60281 207.572354,363.138357 207.572354,367.532602 L207.572354,389.276433 L202.420506,389.276433 L202.420506,369.653952 C202.420506,367.785135 202.268982,366.093123 201.965931,364.577866 C201.662879,363.062608 201.145174,361.762032 200.4128,360.676098 C199.680426,359.590164 198.695523,358.744158 197.458063,358.138055 C196.220603,357.531952 194.667488,357.228905 192.798671,357.228905 C191.434939,357.228905 190.109109,357.506698 188.821141,358.062292 C187.533172,358.617887 186.384119,359.463893 185.373948,360.600336 C184.363777,361.736778 183.555652,363.176251 182.949549,364.918797 C182.343446,366.661342 182.040399,368.719536 182.040399,371.093439 L182.040399,389.276433 L176.88855,389.276433 L176.88855,332 L182.040399,332 L182.040399,359.653305 L182.191924,359.653305 Z M224.141187,361.774654 C224.141187,364.805168 224.633638,367.684114 225.618555,370.411576 C226.603473,373.139039 228.005064,375.550787 229.823373,377.646893 C231.641682,379.742999 233.876652,381.409757 236.528352,382.647217 C239.180052,383.884677 242.17264,384.503397 245.506206,384.503397 C248.789263,384.503397 251.756597,383.884677 254.408297,382.647217 C257.059997,381.409757 259.307595,379.742999 261.151158,377.646893 C262.994721,375.550787 264.421566,373.139039 265.431738,370.411576 C266.441909,367.684114 266.946987,364.805168 266.946987,361.774654 C266.946987,358.74414 266.441909,355.865194 265.431738,353.137731 C264.421566,350.410269 262.994721,347.99852 261.151158,345.902415 C259.307595,343.806309 257.059997,342.139551 254.408297,340.902091 C251.756597,339.664631 248.789263,339.04591 245.506206,339.04591 C242.17264,339.04591 239.180052,339.664631 236.528352,340.902091 C233.876652,342.139551 231.641682,343.806309 229.823373,345.902415 C228.005064,347.99852 226.603473,350.410269 225.618555,353.137731 C224.633638,355.865194 224.141187,358.74414 224.141187,361.774654 Z M276.19001,389.276433 L245.506206,389.276433 C241.617046,389.276433 238.018364,388.594578 234.710053,387.230847 C231.401741,385.867115 228.535423,383.960445 226.111012,381.510779 C223.6866,379.061114 221.792557,376.156914 220.428826,372.798094 C219.065094,369.439274 218.383239,365.764831 218.383239,361.774654 C218.383239,357.784477 219.065094,354.110033 220.428826,350.751213 C221.792557,347.392393 223.6866,344.488194 226.111012,342.038528 C228.535423,339.588863 231.401741,337.682193 234.710053,336.318461 C238.018364,334.95473 241.617046,334.272874 245.506206,334.272874 C249.344857,334.272874 252.918285,334.95473 256.226597,336.318461 C259.534908,337.682193 262.401226,339.588863 264.825638,342.038528 C267.250049,344.488194 269.144092,347.392393 270.507824,350.751213 C271.871555,354.110033 272.553411,357.784477 272.553411,361.774654 C272.553411,366.52246 271.505374,370.853505 269.409268,374.767919 C267.313162,378.682333 264.169051,381.851699 259.976839,384.27611 L276.19001,384.427635 L276.19001,389.276433 Z M290.637493,384.427635 L315.639111,384.427635 L315.639111,389.276433 L285.182595,389.276433 L285.182595,335.636599 L290.637493,335.636599 L290.637493,384.427635 Z" id="GraphQL" fill="#FFFFFF"></path>
        </g>
    </g>
</svg>

<svg width="316" height="408" viewBox="0 0 316 408" xmlns="http://www.w3.org/2000/svg"><title>graphql</title><g fill="none" fill-rule="evenodd"><g fill="#E535AB"><path d="M41.275 243.796l-11.706-6.759L160.304 10.605l11.706 6.758z"/><path d="M27.051 218.939h260.816v13.551H27.051z"/><path d="M162.66 301.967L32.205 226.646l6.775-11.736 130.457 75.322zM275.988 105.168L145.531 29.846l6.776-11.735 130.457 75.321z"/><path d="M38.844 105.196l-6.76-11.706L162.87 17.98l6.758 11.706z"/><path d="M273.577 243.524L143.169 17.658l11.735-6.776 130.408 225.866zM37.393 84.49H50.91v151.02H37.393z"/><path d="M264.09 84.49h13.517v151.02H264.09z"/><path d="M160.226 296.313l-5.904-10.226 113.746-65.673 5.904 10.225z"/><path d="M295.521 239.918c-7.817 13.633-25.242 18.286-38.841 10.45-13.599-7.837-18.24-25.307-10.423-38.94 7.817-13.632 25.243-18.285 38.842-10.448 13.68 7.918 18.321 25.306 10.422 38.938M68.661 108.571c-7.817 13.633-25.242 18.286-38.841 10.45-13.599-7.837-18.24-25.307-10.423-38.94C27.214 66.45 44.64 61.797 58.24 69.634c13.598 7.918 18.24 25.306 10.422 38.938M19.479 239.918c-7.818-13.632-3.176-31.02 10.422-38.938 13.599-7.837 30.943-3.184 38.842 10.449 7.817 13.632 3.176 31.02-10.423 38.938-13.68 7.837-31.024 3.184-38.841-10.449M246.339 108.571c-7.818-13.632-3.176-31.02 10.422-38.938 13.599-7.837 30.943-3.184 38.842 10.449 7.817 13.632 3.176 31.02-10.423 38.938-13.599 7.837-31.024 3.184-38.841-10.449M157.5 319.837c-15.716 0-28.419-12.735-28.419-28.49 0-15.755 12.703-28.49 28.419-28.49 15.716 0 28.419 12.735 28.419 28.49 0 15.673-12.703 28.49-28.419 28.49M157.5 57.143c-15.716 0-28.419-12.735-28.419-28.49 0-15.755 12.703-28.49 28.419-28.49 15.716 0 28.419 12.735 28.419 28.49 0 15.755-12.703 28.49-28.419 28.49"/></g><path d="M43.563 345.258c-1.868-1.97-4.09-3.497-6.667-4.583-2.576-1.086-5.53-1.63-8.864-1.63-3.434 0-6.528.632-9.28 1.895-2.754 1.263-5.09 2.967-7.009 5.114-1.92 2.147-3.396 4.634-4.432 7.463-1.035 2.828-1.553 5.808-1.553 8.94 0 3.131.518 6.111 1.553 8.94 1.036 2.828 2.513 5.303 4.432 7.424 1.92 2.122 4.255 3.814 7.008 5.076 2.753 1.263 5.847 1.894 9.281 1.894 3.03 0 5.809-.328 8.334-.985 2.525-.656 4.571-1.49 6.137-2.5v-16.289H30.002v-4.773h17.956v24.169a34.774 34.774 0 0 1-9.47 3.94c-3.385.858-6.895 1.287-10.532 1.287-4.04 0-7.778-.707-11.212-2.121-3.435-1.414-6.39-3.372-8.865-5.872-2.475-2.5-4.407-5.467-5.796-8.902C.694 370.311 0 366.548 0 362.457c0-4.092.707-7.855 2.121-11.29 1.415-3.434 3.372-6.401 5.872-8.901s5.455-4.458 8.864-5.872c3.41-1.414 7.11-2.121 11.1-2.121 4.293 0 8.03.631 11.212 1.894 3.182 1.263 5.91 3.03 8.183 5.303l-3.789 3.788zm18.085 16.365c0-.96-.026-2.197-.076-3.712a82.992 82.992 0 0 0-.228-4.091h4.925c.101.96.177 2.02.227 3.182.05 1.161.076 2.121.076 2.879h.152c1.01-2.071 2.525-3.75 4.545-5.039 2.02-1.288 4.294-1.932 6.819-1.932.657 0 1.25.026 1.78.076s1.074.152 1.63.303l-.683 4.85c-.303-.102-.808-.203-1.515-.304a14.982 14.982 0 0 0-2.121-.152c-1.364 0-2.677.253-3.94.758s-2.361 1.3-3.296 2.387c-.934 1.086-1.692 2.475-2.272 4.167-.581 1.692-.872 3.725-.872 6.098v18.183h-5.151v-27.653zm48.767 4.773c0-3.08-.808-5.379-2.424-6.894-1.616-1.515-3.965-2.273-7.046-2.273-2.121 0-4.091.379-5.91 1.136-1.818.758-3.358 1.768-4.62 3.03l-2.88-3.408c1.465-1.465 3.397-2.677 5.796-3.637 2.4-.96 5.114-1.44 8.144-1.44 1.92 0 3.713.266 5.38.796 1.666.53 3.131 1.326 4.394 2.386 1.262 1.061 2.247 2.4 2.955 4.016.707 1.616 1.06 3.51 1.06 5.682v15.531c0 1.364.05 2.778.152 4.243.1 1.465.252 2.702.454 3.712h-4.621a37.873 37.873 0 0 1-.379-2.803 29.696 29.696 0 0 1-.152-2.955h-.151c-1.616 2.374-3.447 4.079-5.493 5.114-2.045 1.036-4.508 1.554-7.387 1.554a16.49 16.49 0 0 1-4.205-.569 11.772 11.772 0 0 1-3.94-1.856c-1.186-.858-2.171-1.97-2.954-3.333-.783-1.364-1.174-3.03-1.174-5 0-2.728.694-4.887 2.083-6.478 1.39-1.591 3.245-2.778 5.569-3.561 2.323-.783 4.987-1.288 7.993-1.515 3.005-.228 6.124-.341 9.356-.341v-1.137zm-1.515 5.152c-2.121 0-4.255.088-6.402.265-2.146.177-4.091.53-5.833 1.06-1.743.531-3.17 1.301-4.281 2.312-1.111 1.01-1.667 2.348-1.667 4.015 0 1.263.24 2.323.72 3.182a5.887 5.887 0 0 0 1.932 2.084c.808.53 1.704.909 2.69 1.136.984.227 1.982.34 2.992.34 1.818 0 3.435-.315 4.849-.946 1.414-.632 2.601-1.49 3.56-2.576a11.385 11.385 0 0 0 2.198-3.75 13.19 13.19 0 0 0 .757-4.47v-2.652H108.9zm24.827 35.911h-5.152v-53.64h5.152v6.137h.227c1.465-2.323 3.422-4.078 5.872-5.265 2.45-1.187 4.937-1.78 7.463-1.78 2.778 0 5.29.48 7.538 1.439 2.248.96 4.167 2.273 5.758 3.94 1.59 1.666 2.828 3.636 3.712 5.91.884 2.272 1.326 4.722 1.326 7.348 0 2.626-.442 5.076-1.326 7.349-.884 2.273-2.121 4.243-3.712 5.91-1.591 1.666-3.51 2.98-5.758 3.94-2.248.959-4.76 1.439-7.538 1.439-2.526 0-5.013-.594-7.463-1.78-2.45-1.188-4.407-2.892-5.872-5.115h-.227v24.168zm26.441-35.911c0-1.97-.303-3.826-.909-5.569-.606-1.742-1.477-3.257-2.614-4.545-1.136-1.288-2.538-2.311-4.205-3.069-1.666-.757-3.56-1.136-5.682-1.136-1.97 0-3.788.366-5.455 1.098a13.093 13.093 0 0 0-4.318 3.031c-1.212 1.288-2.16 2.803-2.841 4.546-.682 1.742-1.023 3.624-1.023 5.644s.34 3.902 1.023 5.644c.682 1.743 1.629 3.245 2.84 4.508a13.372 13.372 0 0 0 4.32 2.993c1.666.732 3.484 1.098 5.454 1.098 2.122 0 4.016-.366 5.682-1.098 1.667-.733 3.069-1.743 4.205-3.03 1.137-1.289 2.008-2.804 2.614-4.546.606-1.743.91-3.6.91-5.569zm22.024-11.895c.96-2.07 2.55-3.712 4.773-4.924a14.647 14.647 0 0 1 7.122-1.819c4.495 0 7.866 1.339 10.114 4.016 2.248 2.677 3.371 6.212 3.371 10.607v21.743h-5.151v-19.622c0-1.869-.152-3.56-.455-5.076-.303-1.515-.82-2.816-1.553-3.902-.733-1.086-1.717-1.932-2.955-2.538-1.237-.606-2.79-.91-4.66-.91-1.363 0-2.689.279-3.977.834-1.288.556-2.437 1.402-3.447 2.538-1.01 1.137-1.818 2.576-2.424 4.319-.607 1.742-.91 3.8-.91 6.174v18.183h-5.151V332h5.151v27.653h.152zm41.95 2.122c0 3.03.492 5.91 1.477 8.637.984 2.727 2.386 5.139 4.204 7.235 1.819 2.096 4.054 3.763 6.705 5 2.652 1.238 5.645 1.856 8.978 1.856 3.283 0 6.25-.618 8.902-1.856 2.652-1.237 4.9-2.904 6.743-5 1.844-2.096 3.27-4.508 4.28-7.235 1.01-2.728 1.516-5.607 1.516-8.637 0-3.03-.505-5.91-1.515-8.637-1.01-2.728-2.437-5.14-4.28-7.236-1.844-2.096-4.092-3.762-6.744-5-2.651-1.237-5.619-1.856-8.902-1.856-3.333 0-6.326.619-8.978 1.856-2.651 1.238-4.886 2.904-6.705 5-1.818 2.097-3.22 4.508-4.204 7.236-.985 2.727-1.478 5.606-1.478 8.637zm52.048 27.501h-30.684c-3.889 0-7.488-.681-10.796-2.045-3.308-1.364-6.175-3.27-8.599-5.72-2.424-2.45-4.318-5.354-5.682-8.713-1.364-3.359-2.046-7.033-2.046-11.023 0-3.99.682-7.665 2.046-11.024 1.364-3.359 3.258-6.263 5.682-8.712 2.424-2.45 5.29-4.357 8.6-5.72 3.307-1.364 6.906-2.046 10.795-2.046 3.839 0 7.412.682 10.72 2.045 3.309 1.364 6.175 3.27 8.6 5.72 2.424 2.45 4.318 5.354 5.682 8.713 1.364 3.359 2.045 7.033 2.045 11.024 0 4.747-1.048 9.079-3.144 12.993-2.096 3.914-5.24 7.084-9.432 9.508l16.213.152v4.848zm14.447-4.848h25.002v4.848h-30.456v-53.64h5.454v48.792z" fill="#FFF"/></g></svg>
